svg/banks/card-recharge/forte-gold.svg

<svg width="100" height="100" viewBox="0 0 100 100" fill="none" xmlns="http://www.w3.org/2000/svg">
<foreignObject x="24.125" y="-0.875" width="51.75" height="51.75"><div xmlns="http://www.w3.org/1999/xhtml" style="backdrop-filter:blur(2px);clip-path:url(#bgblur_0_91_52080_clip_path);height:100%;width:100%"></div></foreignObject><path data-figma-bg-blur-radius="4" d="M70.9595 22.7905L52.2095 4.04053C50.9888 2.81982 49.0112 2.81982 47.7905 4.04053L29.0405 22.7905C28.1464 23.6847 27.8793 25.0275 28.363 26.1963C28.8468 27.3651 29.9866 28.125 31.25 28.125H37.5V43.75C37.5 45.4773 38.8992 46.875 40.625 46.875H59.375C61.1023 46.875 62.5 45.4773 62.5 43.75V28.125H68.75C70.0134 28.125 71.1548 27.3651 71.637 26.1963C72.1222 25.0275 71.8536 23.6847 70.9595 22.7905Z" fill="#0DB4C4" fill-opacity="0.7"/>
<path d="M89.0625 40.625H10.9375C6.62994 40.625 3.125 44.1284 3.125 48.4375V89.0625C3.125 93.3716 6.62994 96.875 10.9375 96.875H89.0625C93.3716 96.875 96.875 93.3716 96.875 89.0625V48.4375C96.875 44.1284 93.3716 40.625 89.0625 40.625Z" fill="#0DB4C4"/>
<foreignObject x="15" y="37" width="70" height="61"><div xmlns="http://www.w3.org/1999/xhtml" style="backdrop-filter:blur(5px);clip-path:url(#bgblur_1_91_52080_clip_path);height:100%;width:100%"></div></foreignObject><path data-figma-bg-blur-radius="10" fill-rule="evenodd" clip-rule="evenodd" d="M32.1703 88H67.9302V83.9971H32.1703V88ZM49.9471 47L54.6942 51.4802L49.9471 55.8651L45.3013 51.4802L49.9471 47ZM75 66.2581C68.6357 61.0138 60.3519 57.6798 51.1615 57.3935V82.2827C51.1615 82.2827 58.0293 82.1869 59.8484 82.2827C61.365 82.2827 61.8689 80.9451 61.8689 80.9451L68.2328 66.4535C68.8376 66.8359 69.4427 67.2181 69.9509 67.6001L63.4862 82.2826H68.0312C70.354 76.9426 72.677 71.6028 75 66.2625V66.2581ZM57.6264 78.6528C57.1223 78.7486 55.4042 78.6528 55.4042 78.6528V61.7784C58.6388 62.2558 61.6669 63.2112 64.5994 64.5438L58.6388 78.0844C58.2357 78.7537 57.6264 78.6577 57.6264 78.6577V78.6528ZM25 66.2581C31.3643 61.0138 39.7485 57.6798 48.8385 57.3935V82.2827C48.8385 82.2827 41.9707 82.1869 40.1516 82.2827C38.635 82.2827 38.1311 80.9451 38.1311 80.9451L31.7672 66.4535C31.1625 66.8359 30.5528 67.2181 30.0492 67.6001L36.6144 82.2826H31.9688C29.6456 76.9426 27.3229 71.6028 25 66.2625V66.2581ZM42.3736 78.6528C42.8777 78.7486 44.5958 78.6528 44.5958 78.6528V61.7784C41.3613 62.2558 38.3325 63.2112 35.5058 64.5438L41.366 78.0844C41.7738 78.7537 42.3736 78.6577 42.3736 78.6577V78.6528Z" fill="white" fill-opacity="0.8"/>
<path d="M14 73C16.7614 73 19 70.7614 19 68C19 65.2386 16.7614 63 14 63C11.2386 63 9 65.2386 9 68C9 70.7614 11.2386 73 14 73Z" fill="white" fill-opacity="0.5"/>
<foreignObject x="77" y="59" width="18" height="18"><div xmlns="http://www.w3.org/1999/xhtml" style="backdrop-filter:blur(2px);clip-path:url(#bgblur_2_91_52080_clip_path);height:100%;width:100%"></div></foreignObject><path data-figma-bg-blur-radius="4" d="M86 73C88.7614 73 91 70.7614 91 68C91 65.2386 88.7614 63 86 63C83.2386 63 81 65.2386 81 68C81 70.7614 83.2386 73 86 73Z" fill="white" fill-opacity="0.5"/>
<defs>
<clipPath id="bgblur_0_91_52080_clip_path" transform="translate(-24.125 0.875)"><path d="M70.9595 22.7905L52.2095 4.04053C50.9888 2.81982 49.0112 2.81982 47.7905 4.04053L29.0405 22.7905C28.1464 23.6847 27.8793 25.0275 28.363 26.1963C28.8468 27.3651 29.9866 28.125 31.25 28.125H37.5V43.75C37.5 45.4773 38.8992 46.875 40.625 46.875H59.375C61.1023 46.875 62.5 45.4773 62.5 43.75V28.125H68.75C70.0134 28.125 71.1548 27.3651 71.637 26.1963C72.1222 25.0275 71.8536 23.6847 70.9595 22.7905Z"/>
</clipPath><clipPath id="bgblur_1_91_52080_clip_path" transform="translate(-15 -37)"><path fill-rule="evenodd" clip-rule="evenodd" d="M32.1703 88H67.9302V83.9971H32.1703V88ZM49.9471 47L54.6942 51.4802L49.9471 55.8651L45.3013 51.4802L49.9471 47ZM75 66.2581C68.6357 61.0138 60.3519 57.6798 51.1615 57.3935V82.2827C51.1615 82.2827 58.0293 82.1869 59.8484 82.2827C61.365 82.2827 61.8689 80.9451 61.8689 80.9451L68.2328 66.4535C68.8376 66.8359 69.4427 67.2181 69.9509 67.6001L63.4862 82.2826H68.0312C70.354 76.9426 72.677 71.6028 75 66.2625V66.2581ZM57.6264 78.6528C57.1223 78.7486 55.4042 78.6528 55.4042 78.6528V61.7784C58.6388 62.2558 61.6669 63.2112 64.5994 64.5438L58.6388 78.0844C58.2357 78.7537 57.6264 78.6577 57.6264 78.6577V78.6528ZM25 66.2581C31.3643 61.0138 39.7485 57.6798 48.8385 57.3935V82.2827C48.8385 82.2827 41.9707 82.1869 40.1516 82.2827C38.635 82.2827 38.1311 80.9451 38.1311 80.9451L31.7672 66.4535C31.1625 66.8359 30.5528 67.2181 30.0492 67.6001L36.6144 82.2826H31.9688C29.6456 76.9426 27.3229 71.6028 25 66.2625V66.2581ZM42.3736 78.6528C42.8777 78.7486 44.5958 78.6528 44.5958 78.6528V61.7784C41.3613 62.2558 38.3325 63.2112 35.5058 64.5438L41.366 78.0844C41.7738 78.7537 42.3736 78.6577 42.3736 78.6577V78.6528Z"/>
</clipPath><clipPath id="bgblur_2_91_52080_clip_path" transform="translate(-77 -59)"><path d="M86 73C88.7614 73 91 70.7614 91 68C91 65.2386 88.7614 63 86 63C83.2386 63 81 65.2386 81 68C81 70.7614 83.2386 73 86 73Z"/>
</clipPath></defs>
</svg>

<svg width="100" height="100" fill="none" xmlns="http://www.w3.org/2000/svg"><g filter="url(#a)"><path d="M70.96 22.79 52.21 4.04a3.124 3.124 0 0 0-4.42 0L29.04 22.79a3.124 3.124 0 0 0 2.21 5.335h6.25V43.75c0 1.727 1.4 3.125 3.125 3.125h18.75A3.123 3.123 0 0 0 62.5 43.75V28.125h6.25c1.263 0 2.405-.76 2.887-1.929a3.122 3.122 0 0 0-.677-3.405Z" fill="#0DB4C4" fill-opacity=".7"/></g><path d="M89.063 40.625H10.936c-4.307 0-7.812 3.503-7.812 7.813v40.624c0 4.31 3.505 7.813 7.813 7.813h78.124c4.31 0 7.813-3.503 7.813-7.813V48.438c0-4.31-3.503-7.813-7.813-7.813Z" fill="#0DB4C4"/><g filter="url(#b)"><path fill-rule="evenodd" clip-rule="evenodd" d="M32.17 88h35.76v-4.003H32.17V88Zm17.777-41 4.747 4.48-4.747 4.385-4.646-4.385L49.947 47ZM75 66.258c-6.364-5.244-14.648-8.578-23.839-8.864v24.889s6.868-.096 8.687 0c1.517 0 2.02-1.338 2.02-1.338l6.365-14.491c.605.382 1.21.764 1.718 1.146l-6.465 14.683h4.545L75 66.263v-.005ZM57.626 78.653c-.504.096-2.222 0-2.222 0V61.778c3.235.478 6.263 1.433 9.195 2.766l-5.96 13.54c-.403.67-1.013.574-1.013.574v-.005ZM25 66.258c6.364-5.244 14.748-8.578 23.839-8.864v24.889s-6.868-.096-8.687 0c-1.517 0-2.02-1.338-2.02-1.338l-6.365-14.491c-.604.382-1.214.764-1.718 1.146l6.565 14.683H31.97L25 66.263v-.005Zm17.374 12.395c.504.096 2.222 0 2.222 0V61.778a32.291 32.291 0 0 0-9.09 2.766l5.86 13.54c.408.67 1.008.574 1.008.574v-.005Z" fill="#fff" fill-opacity=".8"/></g><g filter="url(#c)"><path d="M14 73a5 5 0 1 0 0-10 5 5 0 0 0 0 10Z" fill="#fff" fill-opacity=".5"/></g><g filter="url(#d)"><path d="M86 73a5 5 0 1 0 0-10 5 5 0 0 0 0 10Z" fill="#fff" fill-opacity=".5"/></g><defs><filter id="a" x="24.125" y="-.875" width="51.751" height="51.75" filterUnits="userSpaceOnUse" color-interpolation-filters="sRGB"><feFlood flood-opacity="0" result="BackgroundImageFix"/><feGaussianBlur in="BackgroundImageFix" stdDeviation="2"/><feComposite in2="SourceAlpha" operator="in" result="effect1_backgroundBlur_3088_8051"/><feBlend in="SourceGraphic" in2="effect1_backgroundBlur_3088_8051" result="shape"/></filter><filter id="b" x="15" y="37" width="70" height="61" filterUnits="userSpaceOnUse" color-interpolation-filters="sRGB"><feFlood flood-opacity="0" result="BackgroundImageFix"/><feGaussianBlur in="BackgroundImageFix" stdDeviation="5"/><feComposite in2="SourceAlpha" operator="in" result="effect1_backgroundBlur_3088_8051"/><feBlend in="SourceGraphic" in2="effect1_backgroundBlur_3088_8051" result="shape"/></filter><filter id="c" x="5" y="59" width="18" height="18" filterUnits="userSpaceOnUse" color-interpolation-filters="sRGB"><feFlood flood-opacity="0" result="BackgroundImageFix"/><feGaussianBlur in="BackgroundImageFix" stdDeviation="2"/><feComposite in2="SourceAlpha" operator="in" result="effect1_backgroundBlur_3088_8051"/><feBlend in="SourceGraphic" in2="effect1_backgroundBlur_3088_8051" result="shape"/></filter><filter id="d" x="77" y="59" width="18" height="18" filterUnits="userSpaceOnUse" color-interpolation-filters="sRGB"><feFlood flood-opacity="0" result="BackgroundImageFix"/><feGaussianBlur in="BackgroundImageFix" stdDeviation="2"/><feComposite in2="SourceAlpha" operator="in" result="effect1_backgroundBlur_3088_8051"/><feBlend in="SourceGraphic" in2="effect1_backgroundBlur_3088_8051" result="shape"/></filter></defs></svg>
